backend/papyrus-web-graphics/src/main/resources/icons-override/full/obj16/CallEvent.svg

<?xml version="1.0" encoding="UTF-8" standalone="no"?>
<svg
   width="18"
   height="16"
   viewBox="0 0 4.7624999 4.2333332"
   version="1.1"
   id="svg8"
   inkscape:version="1.3 (0e150ed, 2023-07-21)"
   sodipodi:docname="CallEvent.svg"
   xml:space="preserve"
   xmlns:inkscape="http://www.inkscape.org/namespaces/inkscape"
   xmlns:sodipodi="http://sodipodi.sourceforge.net/DTD/sodipodi-0.dtd"
   xmlns:xlink="http://www.w3.org/1999/xlink"
   xmlns="http://www.w3.org/2000/svg"
   xmlns:svg="http://www.w3.org/2000/svg"
   xmlns:rdf="http://www.w3.org/1999/02/22-rdf-syntax-ns#"
   xmlns:cc="http://creativecommons.org/ns#"
   xmlns:dc="http://purl.org/dc/elements/1.1/"><metadata
     id="metadata24"><rdf:RDF><cc:Work
         rdf:about=""><dc:format>image/svg+xml</dc:format><dc:type
           rdf:resource="http://purl.org/dc/dcmitype/StillImage" /></cc:Work></rdf:RDF></metadata><defs
     id="defs2"><linearGradient
       inkscape:collect="always"
       xlink:href="#linearGradient1086"
       id="linearGradient1088-2"
       x1="-0.80093998"
       y1="-3.7348001"
       x2="2.5992501"
       y2="4.0184498"
       gradientUnits="userSpaceOnUse" /><linearGradient
       inkscape:collect="always"
       id="linearGradient1086"><stop
         style="stop-color:#b9c8de;stop-opacity:1;"
         offset="0"
         id="stop1082" /><stop
         style="stop-color:#3d7ebd;stop-opacity:1"
         offset="1"
         id="stop1084" /></linearGradient><linearGradient
       inkscape:collect="always"
       xlink:href="#linearGradient1086"
       id="linearGradient952"
       gradientUnits="userSpaceOnUse"
       x1="-0.80093998"
       y1="-3.7348001"
       x2="2.5992501"
       y2="4.0184498" /><linearGradient
       inkscape:collect="always"
       xlink:href="#linearGradient1086"
       id="linearGradient954"
       gradientUnits="userSpaceOnUse"
       x1="-0.80093998"
       y1="-3.7348001"
       x2="2.5992501"
       y2="4.0184498" /><linearGradient
       id="linearGradient3"
       inkscape:collect="always"><stop
         style="stop-color:#ffffff;stop-opacity:1;"
         offset="0"
         id="stop4" /><stop
         style="stop-color:#4d81b4;stop-opacity:1;"
         offset="1"
         id="stop5" /></linearGradient><linearGradient
       inkscape:collect="always"
       xlink:href="#linearGradient3"
       id="linearGradient5"
       x1="37.66853"
       y1="87.939732"
       x2="215.76853"
       y2="87.939732"
       gradientUnits="userSpaceOnUse" /></defs><sodipodi:namedview
     id="base"
     pagecolor="#ffffff"
     bordercolor="#666666"
     borderopacity="1.0"
     inkscape:pageopacity="0"
     inkscape:pageshadow="2"
     inkscape:zoom="16.726063"
     inkscape:cx="17.577359"
     inkscape:cy="7.3238994"
     inkscape:document-units="mm"
     inkscape:current-layer="svg8"
     inkscape:document-rotation="0"
     showgrid="false"
     inkscape:pagecheckerboard="false"
     inkscape:window-width="2560"
     inkscape:window-height="1440"
     inkscape:window-x="0"
     inkscape:window-y="0"
     inkscape:window-maximized="0"
     units="px"
     inkscape:showpageshadow="2"
     inkscape:deskcolor="#d1d1d1" /><g
     id="g21"><g
       id="g5"
       transform="matrix(0.00687045,-9.1977633e-4,9.1977633e-4,0.00687045,0.51312145,0.25013748)"><path
         style="fill:#4d81b4;fill-opacity:1;stroke:#4d81b4;stroke-width:22.0714;stroke-linecap:round;stroke-dasharray:none;stroke-opacity:1"
         d="M 42.650223,0.94433901 4.8635273,361.40415"
         id="path3-2" /><g
         id="g2-7"
         transform="matrix(0.99689691,0.07872637,-0.07872637,0.99689691,8.9945742,-17.117781)"><path
           fill="#000000"
           d="m 203.86853,92.782868 c -18.9,3.1 -49.6,3.9 -70.1,-34.8 -21.9,-41.7 -57.3,-42.9 -78,-39.1 -10.1,1.9 -17.6,10.3 -17.6,18.4 V 140.88287 c 5.9,2.3 12.3,-0.1 14,-0.4 0.4,-0.1 0.8,-0.2 1.3,-0.3 13.2,-2.9 27.1,-4.3 61.5,12.3 43.2,20.7 81,-17.4 95.7,-44 1.1,-1.9 4.6,-10.600002 4.6,-19.100002 -5.2,2.1 -11.4,3.4 -11.4,3.4 z"
           id="path1-9"
           style="fill:url(#linearGradient5);stroke:#4d81b4;stroke-width:21.6396;stroke-dasharray:none;stroke-opacity:1" /></g></g><g
       id="g1096"
       transform="matrix(-0.01861983,0,0,0.01861983,7.4426904,0.97924804)"><g
         inkscape:label="Rendered Gears"
         transform="matrix(9.564118,0,0,9.564118,229.47846,98.421382)"
         id="g1057"
         style="fill:url(#linearGradient1088-2);fill-opacity:1;stroke:#2d6296;stroke-width:0.83646;stroke-miterlimit:4;stroke-dasharray:none;stroke-opacity:1"><path
           style="fill:url(#linearGradient952);fill-opacity:1;stroke:#2d6296;stroke-width:0.83646;stroke-miterlimit:4;stroke-dasharray:none;stroke-opacity:1"
           d="m 3.7348,-0.80094 0.94462,-0.20258 0.31568,0.00993 1.36177,0.64918 V 0.34441 L 4.9951,0.99359 4.67942,1.00352 3.7348,0.80094 3.20725,2.07455 4.01845,2.59925 4.23464,2.8295 4.73852,4.25146 4.25146,4.73852 2.8295,4.23464 2.59925,4.01845 2.07455,3.20725 0.80094,3.7348 1.00352,4.67942 0.99359,4.9951 0.34441,6.35687 H -0.34441 L -0.99359,4.9951 -1.00352,4.67942 -0.80094,3.7348 -2.07455,3.20725 -2.59925,4.01845 -2.8295,4.23464 -4.25146,4.73852 -4.73852,4.25146 -4.23464,2.8295 -4.01845,2.59925 -3.20725,2.07455 -3.7348,0.80094 -4.67942,1.00352 -4.9951,0.99359 -6.35687,0.34441 v -0.68882 l 1.36177,-0.64918 0.31568,-0.00993 0.94462,0.20258 0.52755,-1.27361 -0.8112,-0.5247 -0.21619,-0.23025 -0.50388,-1.42196 0.48706,-0.48706 1.42196,0.50388 0.23025,0.21619 0.5247,0.8112 1.27361,-0.52755 -0.20258,-0.94462 0.00993,-0.31568 0.64918,-1.36177 h 0.68882 l 0.64918,1.36177 0.00993,0.31568 -0.20258,0.94462 1.27361,0.52755 0.5247,-0.8112 0.23025,-0.21619 1.42196,-0.50388 0.48706,0.48706 -0.50388,1.42196 -0.21619,0.23025 -0.8112,0.5247 z"
           id="path1053" /><circle
           style="fill:url(#linearGradient954);fill-opacity:1;stroke:#2d6296;stroke-width:0.83646;stroke-miterlimit:4;stroke-dasharray:none;stroke-opacity:1"
           id="path1055"
           cx="0"
           cy="0"
           r="2" /></g><circle
         style="opacity:1;fill:#ffffff;fill-opacity:1;stroke:none;stroke-width:15.0695;stroke-miterlimit:4;stroke-dasharray:none;stroke-opacity:1"
         id="path1090"
         cx="229.47845"
         cy="98.421379"
         r="4.6329565" /></g></g><g
     id="g882"
     transform="translate(4.7247568,1.3507)" /></svg>

<svg xmlns="http://www.w3.org/2000/svg" xmlns:xlink="http://www.w3.org/1999/xlink" xml:space="preserve" width="16" height="16">
    <defs>
        <linearGradient xlink:href="#a" id="d" x1="-.801" x2="2.599" y1="-3.735" y2="4.018" gradientUnits="userSpaceOnUse"/>
        <linearGradient id="a">
            <stop offset="0" style="stop-color:#b9c8de;stop-opacity:1"/>
            <stop offset="1" style="stop-color:#3d7ebd;stop-opacity:1"/>
        </linearGradient>
        <linearGradient xlink:href="#a" id="e" x1="-.801" x2="2.599" y1="-3.735" y2="4.018" gradientUnits="userSpaceOnUse"/>
        <linearGradient xlink:href="#a" id="f" x1="-.801" x2="2.599" y1="-3.735" y2="4.018" gradientUnits="userSpaceOnUse"/>
        <linearGradient id="b">
            <stop offset="0" style="stop-color:#fff;stop-opacity:1"/>
            <stop offset="1" style="stop-color:#4d81b4;stop-opacity:1"/>
        </linearGradient>
        <linearGradient xlink:href="#b" id="c" x1="37.669" x2="215.769" y1="87.94" y2="87.94" gradientUnits="userSpaceOnUse"/>
    </defs>
    <path d="M42.65.944 4.864 361.404" style="fill:#4d81b4;fill-opacity:1;stroke:#4d81b4;stroke-width:22.0714;stroke-linecap:round;stroke-dasharray:none;stroke-opacity:1" transform="rotate(-7.605 10.541 -14.607)scale(.02529)"/>
    <path d="M203.869 92.783c-18.9 3.1-49.6 3.9-70.1-34.8-21.9-41.7-57.3-42.9-78-39.1-10.1 1.9-17.6 10.3-17.6 18.4v103.6c5.9 2.3 12.3-.1 14-.4.4-.1.8-.2 1.3-.3 13.2-2.9 27.1-4.3 61.5 12.3 43.2 20.7 81-17.4 95.7-44 1.1-1.9 4.6-10.6 4.6-19.1-5.2 2.1-11.4 3.4-11.4 3.4z" style="fill:url(#c);stroke:#4d81b4;stroke-width:21.6396;stroke-dasharray:none;stroke-opacity:1" transform="rotate(-3.06 16.003 -40.113)scale(.02529)"/>
    <g transform="matrix(-.06794 0 0 .06794 27.314 3.93)">
        <g style="fill:url(#d);fill-opacity:1;stroke:#2d6296;stroke-width:.83646;stroke-miterlimit:4;stroke-dasharray:none;stroke-opacity:1" transform="translate(229.478 98.421)scale(9.56412)">
            <path d="m3.735-.8.944-.204.316.01 1.362.65v.688l-1.362.65-.316.01L3.735.8l-.528 1.274.811.524.217.23.504 1.422-.488.488-1.422-.504-.23-.217-.524-.81L.8 3.734l.203.944-.01.316-.65 1.362h-.688l-.65-1.362-.01-.316.203-.944-1.274-.528-.524.811-.23.217-1.422.504-.488-.488.504-1.422.217-.23.81-.524L-3.734.8l-.944.203-.316-.01-1.362-.65v-.688l1.362-.65.316-.01.944.203.528-1.274-.811-.524-.217-.23-.504-1.422.488-.488 1.422.504.23.217.524.81L-.8-3.734l-.203-.944.01-.316.65-1.362h.688l.65 1.362.01.316-.203.944 1.274.528.524-.811.23-.217 1.422-.504.488.488-.504 1.421-.217.23-.81.525z" style="fill:url(#e);fill-opacity:1;stroke:#2d6296;stroke-width:.83646;stroke-miterlimit:4;stroke-dasharray:none;stroke-opacity:1"/>
            <circle r="2" style="fill:url(#f);fill-opacity:1;stroke:#2d6296;stroke-width:.83646;stroke-miterlimit:4;stroke-dasharray:none;stroke-opacity:1"/>
        </g>
        <circle cx="229.478" cy="98.421" r="4.633" style="opacity:1;fill:#fff;fill-opacity:1;stroke:none;stroke-width:15.0695;stroke-miterlimit:4;stroke-dasharray:none;stroke-opacity:1"/>
    </g>
</svg>
